X: 33299
T: Put The Crunchies In The Bowl
R: hornpipe
M: 4/4
K: Gmajor
(3def|gf ga ba gf|ed eg c2 eg|fg af dB cA|GF GB d2 (3def|
gf ga ba gf|ed eg c2 eg|fd ec Bc AB|(3GAG FA G2:|
|:AB|cB cd ec Ac|BG Bd g2 ab|ab c'b ag fe|(3fgf (3efe d2 (3def|
gf ga ba gf|ed eg c2 eg|fd ec Bd Ad|(3GAG FA G2:|

